**harm	**harte	**timestamp	**phrase	**leadinstrument	**kern
*M4/4	*M4/4	*	*	*	*
*C:	*C:	*	*	*	*C:
1r;	N	0	.	r	1r;
=1	=1	=1	=1	=1	=1
*>A_intro	*>A_intro	*>A_intro	*>A_intro	*>A_intro	*>A_intro
4I7	C:maj7	0.232	newline	guitar	4C 4e 4g 4b
2.I	C:maj	0.921	.	guitar	2C 2e 2g
=2	=2	=2	=2	=2	=2
4I7	C:maj7	2.988	.	guitar	4C 4e 4g 4b
2.I	C:maj	3.677	.	guitar	2C 2e 2g
=3	=3	=3	=3	=3	=3
4V7	G:9	5.744	.	guitar	4G 4b 4dd 4ff
2.V	G:sus4(b7,9)	6.433	.	guitar	2G 2b 2dd
=4	=4	=4	=4	=4	=4
4V7	G:9	8.5	.	guitar	4G 4b 4dd 4ff
2.V	G:sus4(b7,9)	9.189	.	guitar	2G 2b 2dd
=5	=5	=5	=5	=5	=5
4I7	C:maj7	11.256	newline	guitar	4C 4e 4g 4b
2.I	C:maj	11.928	.	guitar	2C 2e 2g
=6	=6	=6	=6	=6	=6
4I7	C:maj7	13.945	.	guitar	4C 4e 4g 4b
2.I	C:maj	14.618	.	guitar	2C 2e 2g
=7	=7	=7	=7	=7	=7
4V7	G:9	16.635	.	guitar	4G 4b 4dd 4ff
2.V	G:sus4(b7,9)	17.307	.	guitar	2G 2b 2dd
=8	=8	=8	=8	=8	=8
4V7	G:9	19.325	.	guitar	4G 4b 4dd 4ff
2.V	G:sus4(b7,9)	19.997	.	guitar	2G 2b 2dd
=9	=9	=9	=9	=9	=9
*>A_verse	*>A_verse	*>A_verse	*>A_verse	*>A_verse	*>A_verse
4I7	C:maj7	22.014	newline	voice	4C 4e 4g 4b
2.I	C:maj	22.687	.	voice	2C 2e 2g
=10	=10	=10	=10	=10	=10
4I7	C:maj7	24.704	.	voice	4C 4e 4g 4b
2.I	C:maj	25.376	.	voice	2C 2e 2g
=11	=11	=11	=11	=11	=11
4ii	D:min6	27.393	.	voice	4D 4f 4a
2.ii7	D:min7	28.066	.	voice	2D 2f 2a 2cc
=12	=12	=12	=12	=12	=12
4ii	D:min6	30.083	.	voice	4D 4f 4a
2.ii7	D:min7	30.755	.	voice	2D 2f 2a 2cc
=13	=13	=13	=13	=13	=13
4I7	C:maj7	32.772	newline	voice	4C 4e 4g 4b
2.I	C:maj	33.443	.	voice	2C 2e 2g
=14	=14	=14	=14	=14	=14
4I7	C:maj7	35.453	.	voice	4C 4e 4g 4b
2.I	C:maj	36.123	.	voice	2C 2e 2g
=15	=15	=15	=15	=15	=15
4ii	D:min6	38.133	.	voice	4D 4f 4a
2.ii7	D:min7	38.803	.	voice	2D 2f 2a 2cc
=16	=16	=16	=16	=16	=16
4ii	D:min6	40.813	.	voice	4D 4f 4a
2.ii7	D:min7	41.484	.	voice	2D 2f 2a 2cc
=17	=17	=17	=17	=17	=17
4I7	C:maj7	43.494	newline	voice	4C 4e 4g 4b
2.I	C:maj	44.168	.	voice	2C 2e 2g
=18	=18	=18	=18	=18	=18
4I7	C:maj7	46.192	.	voice	4C 4e 4g 4b
2.I	C:maj	46.867	.	voice	2C 2e 2g
=19	=19	=19	=19	=19	=19
4ii	D:min6	48.891	.	voice	4D 4f 4a
2.ii7	D:min7	49.566	.	voice	2D 2f 2a 2cc
=20	=20	=20	=20	=20	=20
1ii7	D:min7	51.59	.	voice	1D 1f 1a 1cc
=21	=21	=21	=21	=21	=21
1iii7	E:min7	54.288	newline	voice	1E 1g 1b 1dd
=22	=22	=22	=22	=22	=22
1ii7	D:min7	56.963	.	voice	1D 1f 1a 1cc
=23	=23	=23	=23	=23	=23
1iii7	E:min7	59.638	newline	guitar	1E 1g 1b 1dd
=24	=24	=24	=24	=24	=24
1V	G:sus4(b7,9)	62.331	.	guitar	1G 1b 1dd
=25	=25	=25	=25	=25	=25
*>B_verse	*>B_verse	*>B_verse	*>B_verse	*>B_verse	*>B_verse
4I7	C:maj7	65.025	newline	voice	4C 4e 4g 4b
2.I	C:maj	65.691	.	voice	2C 2e 2g
=26	=26	=26	=26	=26	=26
4I7	C:maj7	67.69	.	voice	4C 4e 4g 4b
2.I	C:maj	68.356	.	voice	2C 2e 2g
=27	=27	=27	=27	=27	=27
4ii	D:min6	70.354	.	voice	4D 4f 4a
2.ii7	D:min7	71.021	.	voice	2D 2f 2a 2cc
=28	=28	=28	=28	=28	=28
4ii	D:min6	73.019	.	voice	4D 4f 4a
2.ii7	D:min7	73.686	.	voice	2D 2f 2a 2cc
=29	=29	=29	=29	=29	=29
4I7	C:maj7	75.684	newline	voice	4C 4e 4g 4b
2.I	C:maj	76.353	.	voice	2C 2e 2g
=30	=30	=30	=30	=30	=30
4I7	C:maj7	78.358	.	voice	4C 4e 4g 4b
2.I	C:maj	79.027	.	voice	2C 2e 2g
=31	=31	=31	=31	=31	=31
4ii	D:min6	81.032	.	voice	4D 4f 4a
2.ii7	D:min7	81.701	.	voice	2D 2f 2a 2cc
=32	=32	=32	=32	=32	=32
1ii7	D:min7	83.706	.	voice	1D 1f 1a 1cc
=33	=33	=33	=33	=33	=33
1iii7	E:min7	86.38	newline	voice	1E 1g 1b 1dd
=34	=34	=34	=34	=34	=34
1ii7	D:min7	89.036	.	voice	1D 1f 1a 1cc
=35	=35	=35	=35	=35	=35
1iii7	E:min7	91.692	.	voice	1E 1g 1b 1dd
=36	=36	=36	=36	=36	=36
1ii7	D:min7	94.348	.	voice	1D 1f 1a 1cc
=37	=37	=37	=37	=37	=37
1V7	G:7	97.005	newline	guitar	1G 1b 1dd 1ff
=38	=38	=38	=38	=38	=38
4I7	C:maj7	99.691	newline	voice	4C 4e 4g 4b
2.I	C:maj	100.355	.	voice	2C 2e 2g
=39	=39	=39	=39	=39	=39
4ii	D:min6	102.348	.	voice	4D 4f 4a
2.ii7	D:min7	103.012	.	voice	2D 2f 2a 2cc
=40	=40	=40	=40	=40	=40
4I7	C:maj7	105.005	newline	voice	4C 4e 4g 4b
2.I	C:maj	105.683	.	voice	2C 2e 2g
=41	=41	=41	=41	=41	=41
4V	G:maj	107.716	.	voice	4G 4b 4dd
4IV	F:maj	108.394	.	voice	4F 4a 4cc
4iii	E:min	109.072	.	voice	4E 4g 4b
4ii	D:sus4(b7)	109.75	.	voice	4D 4f 4a
=42	=42	=42	=42	=42	=42
*>C_chorus	*>C_chorus	*>C_chorus	*>C_chorus	*>C_chorus	*>C_chorus
1I	C:maj	110.428	newline	voice	1C 1e 1g
=43	=43	=43	=43	=43	=43
1I	C:maj	113.086	.	voice	1C 1e 1g
=44	=44	=44	=44	=44	=44
1IV	F:maj	115.745	.	voice	1F 1a 1cc
=45	=45	=45	=45	=45	=45
1IV	F:maj	118.403	.	voice	1F 1a 1cc
=46	=46	=46	=46	=46	=46
1I	C:maj	121.061	newline	voice	1C 1e 1g
=47	=47	=47	=47	=47	=47
1I	C:maj	123.7	.	voice	1C 1e 1g
=48	=48	=48	=48	=48	=48
1IV	F:maj	126.339	.	voice	1F 1a 1cc
=49	=49	=49	=49	=49	=49
1IV	F:maj	128.979	.	voice	1F 1a 1cc
=50	=50	=50	=50	=50	=50
1iv	F:min6	131.618	newline	voice	1F 1a- 1cc
=51	=51	=51	=51	=51	=51
1iv	F:min6	134.22	.	voice	1F 1a- 1cc
=52	=52	=52	=52	=52	=52
1I	C:maj	136.823	.	voice	1C 1e 1g
=53	=53	=53	=53	=53	=53
1I	C:maj	139.425	.	voice	1C 1e 1g
=54	=54	=54	=54	=54	=54
1iv	F:min6	142.028	newline	voice	1F 1a- 1cc
=55	=55	=55	=55	=55	=55
1iv	F:min6	144.657	.	voice	1F 1a- 1cc
=56	=56	=56	=56	=56	=56
1ii7	D:min7	147.285	.	voice	1D 1f 1a 1cc
=57	=57	=57	=57	=57	=57
1V7	G:7	149.914	.	voice	1G 1b 1dd 1ff
=58	=58	=58	=58	=58	=58
*>B_verse	*>B_verse	*>B_verse	*>B_verse	*>B_verse	*>B_verse
4I7	C:maj7	152.543	newline	voice	4C 4e 4g 4b
2.I	C:maj	153.212	.	voice	2C 2e 2g
=59	=59	=59	=59	=59	=59
4I7	C:maj7	155.219	.	voice	4C 4e 4g 4b
2.I	C:maj	155.888	.	voice	2C 2e 2g
=60	=60	=60	=60	=60	=60
4ii	D:min6	157.896	.	voice	4D 4f 4a
2.ii7	D:min7	158.565	.	voice	2D 2f 2a 2cc
=61	=61	=61	=61	=61	=61
4ii	D:min6	160.572	.	voice	4D 4f 4a
2.ii7	D:min7	161.241	.	voice	2D 2f 2a 2cc
=62	=62	=62	=62	=62	=62
4I7	C:maj7	163.249	newline	voice	4C 4e 4g 4b
2.I	C:maj	163.91	.	voice	2C 2e 2g
=63	=63	=63	=63	=63	=63
4I7	C:maj7	165.895	.	voice	4C 4e 4g 4b
2.I	C:maj	166.557	.	voice	2C 2e 2g
=64	=64	=64	=64	=64	=64
4ii	D:min6	168.542	.	voice	4D 4f 4a
2.ii7	D:min7	169.204	.	voice	2D 2f 2a 2cc
=65	=65	=65	=65	=65	=65
4ii	D:min6	171.189	.	voice	4D 4f 4a
2.ii7	D:min7	171.85	.	voice	2D 2f 2a 2cc
=66	=66	=66	=66	=66	=66
1iii7	E:min7	173.835	newline	voice	1E 1g 1b 1dd
=67	=67	=67	=67	=67	=67
1ii7	D:min7	176.488	.	voice	1D 1f 1a 1cc
=68	=68	=68	=68	=68	=68
1iii7	E:min7	179.141	.	voice	1E 1g 1b 1dd
=69	=69	=69	=69	=69	=69
1ii7	D:min7	181.794	.	voice	1D 1f 1a 1cc
=70	=70	=70	=70	=70	=70
1V7	G:7	184.447	newline	voice	1G 1b 1dd 1ff
=71	=71	=71	=71	=71	=71
4I7	C:maj7	187.194	newline	voice	4C 4e 4g 4b
2.I	C:maj	187.867	.	voice	2C 2e 2g
=72	=72	=72	=72	=72	=72
4ii	D:min6	189.886	.	voice	4D 4f 4a
2.ii7	D:min7	190.559	.	voice	2D 2f 2a 2cc
=73	=73	=73	=73	=73	=73
4I7	C:maj7	192.577	newline	voice	4C 4e 4g 4b
2.I	C:maj	193.239	.	voice	2C 2e 2g
=74	=74	=74	=74	=74	=74
4V	G:maj	195.226	.	voice	4G 4b 4dd
4IV	F:maj	195.888	.	voice	4F 4a 4cc
4iii	E:min	196.55	.	voice	4E 4g 4b
4ii	D:sus4(b7)	197.212	.	voice	4D 4f 4a
=75	=75	=75	=75	=75	=75
*>C_chorus	*>C_chorus	*>C_chorus	*>C_chorus	*>C_chorus	*>C_chorus
1I	C:maj	197.874	newline	voice	1C 1e 1g
=76	=76	=76	=76	=76	=76
1I	C:maj	200.536	.	voice	1C 1e 1g
=77	=77	=77	=77	=77	=77
1IV	F:maj	203.198	.	voice	1F 1a 1cc
=78	=78	=78	=78	=78	=78
1IV	F:maj	205.861	.	voice	1F 1a 1cc
=79	=79	=79	=79	=79	=79
1I	C:maj	208.523	newline	voice	1C 1e 1g
=80	=80	=80	=80	=80	=80
1I	C:maj	211.171	.	voice	1C 1e 1g
=81	=81	=81	=81	=81	=81
1IV	F:maj	213.82	.	voice	1F 1a 1cc
=82	=82	=82	=82	=82	=82
1IV	F:maj	216.468	.	voice	1F 1a 1cc
=83	=83	=83	=83	=83	=83
1I	C:maj	219.116	newline	voice	1C 1e 1g
=84	=84	=84	=84	=84	=84
1I	C:maj	221.72	.	voice	1C 1e 1g
=85	=85	=85	=85	=85	=85
1IV	F:maj	224.324	.	voice	1F 1a 1cc
=86	=86	=86	=86	=86	=86
1IV	F:maj	226.928	.	voice	1F 1a 1cc
=87	=87	=87	=87	=87	=87
1I	C:maj	229.532	newline	voice	1C 1e 1g
=88	=88	=88	=88	=88	=88
1I	C:maj	232.16	.	voice	1C 1e 1g
=89	=89	=89	=89	=89	=89
1IV	F:maj	234.787	.	voice	1F 1a 1cc
=90	=90	=90	=90	=90	=90
1IV	F:maj	237.414	.	voice	1F 1a 1cc
=91	=91	=91	=91	=91	=91
*>C_chorus	*>C_chorus	*>C_chorus	*>C_chorus	*>C_chorus	*>C_chorus
1I	C:maj	240.041	newline	voice	1C 1e 1g
=92	=92	=92	=92	=92	=92
1I	C:maj	242.658	.	voice	1C 1e 1g
=93	=93	=93	=93	=93	=93
1IV	F:maj	245.276	.	voice	1F 1a 1cc
=94	=94	=94	=94	=94	=94
1IV	F:maj	247.893	.	voice	1F 1a 1cc
=95	=95	=95	=95	=95	=95
*>_fadeout	*>_fadeout	*>_fadeout	*>_fadeout	*>_fadeout	*>_fadeout
1I	C:maj	250.51	newline	voice	1C 1e 1g
=96	=96	=96	=96	=96	=96
1I	C:maj	253.126	.	voice	1C 1e 1g
=97	=97	=97	=97	=97	=97
1IV	F:maj	255.741	.	voice	1F 1a 1cc
=98	=98	=98	=98	=98	=98
1IV	F:maj	258.357	.	voice	1F 1a 1cc
=99	=99	=99	=99	=99	=99
1I	C:maj	260.973	newline	voice	1C 1e 1g
=100	=100	=100	=100	=100	=100
1I	C:maj	263.288	.	voice	1C 1e 1g
=101	=101	=101	=101	=101	=101
1IV	F:maj	265.603	.	voice	1F 1a 1cc
=102	=102	=102	=102	=102	=102
1IV	F:maj	267.919	.	voice	1F 1a 1cc
1r;	N	270.234	.	r	1r;
1r;	N	274.808	.	r	1r;
*-	*-	*-	*-	*-	*-
!!!OTL: Best Of My Love
!!!COC: Eagles
!!!BillboardChartDate: 1975/02/22
!!!BillboardPeak: 1
!!!BillboardWeeksOnChart: 19
!!!SampleTargetRank: 4
!!!SampleActualRank: 2
!!!SampleID#: 1061
!!!RDF**harmony: **recip + pitch class of root + harmonic quality
!!!RDF**harte: Chris Harte's syntax, used by MIREX
!!!RDF**phrase: newline = linebreak in original McGill transcription
!!!RDF**timestamp: McGill audio timestamp in seconds
!!!RDF**leadinstrument: original McGill primary instrumentation annotation
!!!RDT: 2017/01/12/
!!!ENC: Nathaniel Condit-Schultz
!!!EST: Awating manual error checking and editing.
